!!!!SEGMENT: pl-cz--ii-87--043_schiedermayr-johann-baptist--offertorium.krn
!!!cenid: 18xx:1205
!!!COM: Schiedermayr, Johann Baptist
!!!COM-rismid: pe123639
!!!CDT: 1779-1840
!!!CNT: Austrian
!!!OTL: Offertorium
!!!PDT: 1888
!!!AGN: Sacred
!!!SMS-siglum: PL-CZ
!!!SMS-shelfmark: II-87
!!!SMS-shelfwork: 007 W
!!!SMS-variant:
!!!SMS-altvar:
!!!NIFC-rismid: 300033230
!!!URL-scan: http://repozytorium.nifc.pl/skany/pl-cz-nut--ii-87
!!!ONB-nifc:
!!!key:
**kern	**kern	**kern	**text	**kern	**text
*part4	*part3	*part2	*part2	*part1	*part1
*staff4	*staff3	*staff2	*staff2	*staff1	*staff1
*Iempty	*Iempty	*Iempty	*	*Isoprn	*
*I"P4	*I"P3	*I"Baso	*	*I"Soprano	*
*clefF4	*clefG2	*clefF4	*	*clefG2	*
*k[f#c#]	*k[f#c#]	*k[f#c#]	*	*k[f#c#]	*
*D:	*D:	*D:	*	*D:	*
*M2/2	*M2/2	*M2/2	*	*M2/2	*
*met(c|)	*met(c|)	*met(c|)	*	*met(c|)	*
=1	=1	=1	=1	=1	=1
!	!	!	!	!LO:TX:a:t=Moderato quasi Andanta Maestoso	!
4d 4A 4F# 4D\	4ddd 4aa 4ff# 4dd\	1r	.	1r	.
!LO:N:vis=8	!LO:N:vis=8	!	!	!	!
8.r	8.r	.	.	.	.
16F# 16D\	16f# 16d/	.	.	.	.
4F# 4D\	4f# 4d/	.	.	.	.
4F# 4D\	4f# 4d/	.	.	.	.
=2	=2	=2	=2	=2	=2
4G\	4b 4d/	1r	.	1r	.
4GG/	4bb 4gg 4dd 4b\	.	.	.	.
4G\	8r	.	.	.	.
.	8b\L	.	.	.	.
4GG/	8cc#\	.	.	.	.
.	8dd\J	.	.	.	.
=3	=3	=3	=3	=3	=3
4d\	2e/	1r	.	1r	.
8c#\L	.	.	.	.	.
8B\J	.	.	.	.	.
4c#\	8e/L	.	.	.	.
.	8a/	.	.	.	.
4AA/	8b/	.	.	.	.
.	8a/J	.	.	.	.
!!LO:LB:g=original
=4	=4	=4	=4	=4	=4
!	!	!LO:TX:t=P::problem=dopiero tu - na początku 2. systemu (4 takt) nazwa partii&colon; "Baso"	!	!LO:TX:t=P::problem=dopiero tu - na początku 2. systemu (4 takt) nazwa partii&colon; "Soprano"	!
4D/	2c# 2A 2G/	1ryy	.	1ryy	.
4AA/	.	.	.	.	.
4DD/	4d 4A 4F#/	.	.	.	.
4r	4r	.	.	.	.
=5||	=5||	=5||	=5||	=5||	=5||
!	!LO:TX:a:t=P:problem=dziwny znak przed dźwiękami	!	!	!	!
4F# 4D\	8f# 8d/	4.d\	E-	1r	.
.	4f# 4d/	.	.	.	.
4F# 4D\	.	.	.	.	.
.	4f# 4d/	8F#\	-xal-	.	.
4F# 4D\	.	4F#\	-ta-	.	.
.	4f# 4d/	.	.	.	.
4F# 4D\	.	8F#\	-bo	.	.
.	8f# 8d/	8F#\	te	.	.
=6	=6	=6	=6	=6	=6
4D 4BB 4GG/	8b 8d/	8.B\	Do-	1r	.
.	4b 4d/	.	.	.	.
.	.	16GG/	-mi-	.	.
4D 4BB 4GG/	.	4GG/	-ne	.	.
.	4b 4d/	.	.	.	.
4D 4BB 4GG/	.	2r	.	.	.
.	4b 4d/	.	.	.	.
4D 4BB 4GG/	.	.	.	.	.
.	8b 8d/	.	.	.	.
!!LO:LB:g=original
=7	=7	=7	=7	=7	=7
4G 4AA/	4e 4d/	4E\	Quo-	1r	.
4E\	8c#/L	8E\	-ni-	.	.
.	8B/J	8E\	-am	.	.
4AA/	8c#/L	8E\	sus-	.	.
.	8a/	8A\	-ce-	.	.
4A\	8b/	8B\	-pi-	.	.
.	8a/J	8A\	.	.	.
=8	=8	=8	=8	=8	=8
4D/	2g 2c# 2A/	2G\	-sti	1r	.
4AA/	.	.	.	.	.
4DD/	4f# 4d 4A 4F#/	4F#\	me	.	.
4r	4r	4r	.	.	.
=9	=9	=9	=9	=9	=9
4DD/	8f# 8d/	2F#\	nec	1r	.
.	4f# 4d/	.	.	.	.
4D\	.	.	.	.	.
.	4f# 4d/	.	.	.	.
4BB/	.	4F#\	de-	.	.
.	8f# 8d/	.	.	.	.
4AA/	8fnL 8d/	4Fn\	-lec-	.	.
.	8fJ 8d/	.	.	.	.
!!LO:PB:g=original
=10	=10	=10	=10	=10	=10
4E 4D 4GG/	8e 8d 8B/	8E\L	-ta-	1r	.
.	4e 4d 4B/	8d\J	.	.	.
4E 4D 4GG/	.	4d\	-sty	.	.
.	4e 4d 4B/	.	.	.	.
4E 4D 4GG/	.	4r	.	.	.
.	4e 4d 4B/	.	.	.	.
4E 4D 4GG/	.	8B\	i-	.	.
.	8e 8d 8B/	8B\	-ni-	.	.
=11	=11	=11	=11	=11	=11
4C# 4AA/	4e 4c#/	4c#\	-mi-	1r	.
4r	4a 4e/	4A\	-cos	.	.
4B 4D\	4r	4F#\	me-	.	.
4r	4b 4f#/	4B\	-os	.	.
=12	=12	=12	=12	=12	=12
4E\	4r	4A\	su-	1ryy	.
4r	4a 4c#/	2E\	.	.	.
4EE/	4r	.	.	.	.
4r	4g#X 4B/	8F#\L	-per	.	.
.	.	8E\J	.	.	.
=13	=13	=13	=13	=13	=13
4AA/	8a 8c#/	4AA/	me	1r	.
.	4e/	.	.	.	.
4E\	.	4r	.	.	.
.	4e/	.	.	.	.
4E\	.	2r	.	.	.
.	4e/	.	.	.	.
4E\	.	.	.	.	.
.	8e/	.	.	.	.
!!LO:LB:g=original
=14	=14	=14	=14	=14	=14
*	*tremolo	*	*	*	*
!	!LO:TX:t=....	!	!	!	!
8GG#X/	8e 8d/L	1r	.	4r	.
8r	8e 8d/	.	.	.	.
8BB/	8e 8d/	.	.	4ee\	Do-
8r	8e 8d/J	.	.	.	.
!	!LO:TX:t=....	!	!	!	!
8E\	8e 8d/L	.	.	8ee\L	.
8r	8e 8d/	.	.	8dd\J	.
8G#X\	8e 8d/	.	.	8b\	-mi-
!	!	!	!	!LO:SIC:v:s=8g#	!
8r	8e 8d/J	.	.	8g/	-ne
=15	=15	=15	=15	=15	=15
8AA/	8e 8c#/L	1r	.	8.a\L	De-
8r	8e 8c#/	.	.	.	.
.	.	.	.	16cc#\Jk	.
8C#/	8e 8c#/	.	.	4e/	-us
8r	8e 8c#/J	.	.	.	.
!	!LO:TX:t=P:problem=mixed beam	!	!	!	!
8E\	8eL 8c#/	.	.	4r	.
8r	8ee\	.	.	.	.
8A\	8aa\	.	.	4r	.
8r	8ccc#\J	.	.	.	.
=16	=16	=16	=16	=16	=16
!LO:TX:t=P:♯after:problem	!	!	!	!	!
8GG#X/	8.ddd\L	1r	.	4r	.
8r	.	.	.	.	.
.	16bb\Jk	.	.	.	.
!	!LO:TX:t=P:problem=mixed beam	!	!	!	!
8BB/	8gg#X\L	.	.	4ee\	De-
8r	8eJ 8d/	.	.	.	.
8E\	8e 8d/L	.	.	8ee\L	.
8r	8e 8d/	.	.	8dd\J	.
8G#X\	8e 8d/	.	.	8b\	.
8r	8e 8d/J	.	.	8g#X/	-us
!!LO:LB:g=original
=17	=17	=17	=17	=17	=17
8AA/	8e 8c#/L	1r	.	8.a\L	me-
8r	8e 8c#/	.	.	.	.
.	.	.	.	16cc#\Jk	.
8C#/	8e 8c#/	.	.	4e/	-us
8r	8e 8c#/J	.	.	.	.
8E\	8e 8c#/	.	.	4r	.
8r	8ee\L	.	.	.	.
8A\	8aa\	.	.	4r	.
8r	8ccc#\J	.	.	.	.
=18	=18	=18	=18	=18	=18
!	!LO:N:vis=8	!	!	!	!
8GG#X/	8.ddd\L	1r	.	4r	.
8r	.	.	.	.	.
.	16bb\Jk	.	.	.	.
!	!LO:TX:t=P:problem=mixed beam	!	!	!	!
8BB/	8gg#X\L	.	.	4r	.
8r	8eJ 8d/	.	.	.	.
8E\	8e 8d/L	.	.	8ee\	Cla-
8r	8e 8d/	.	.	8ee\	-ma-
8G#X\	8e 8d/	.	.	8g#X/	-vi
!LO:TX:a:t=P:problem=podwójna kreska taktowa	!LO:TX:a:t=P:problem=podwójna kreska taktowa	!	!	!LO:SIC:v:l:s=ad	!
8r	8e 8d/J	.	.	8g#/	a
*	*Xtremolo	*	*	*	*
=19	=19	=19	=19	=19	=19
4AA/	4e 4c#/	1r	.	4a/	te
4r	4r	.	.	4r	.
2r	2r	.	.	4a/	et
.	.	.	.	4a/	sa-
!!LO:PB:g=original
=20	=20	=20	=20	=20	=20
!	!	!	!	!LO:N:vis=2	!
4F#\	4a 4d#X 4A/	1r	.	2.a\	-na-
4r	4r	.	.	.	.
4F#\	4a 4d# 4A/	.	.	.	.
.	.	.	.	16qqb/LL	.
.	.	.	.	16qqa/JJ	.
4r	4r	.	.	8g#X/L	-sti
.	.	.	.	8a/J	.
=21	=21	=21	=21	=21	=21
4E/	4g#X 4e 4B/	2r;	.	4cc#\	me
4E;/	4g# 4e 4B;/	.	.	4b;\	.
4r	4r	8r	.	2r	.
.	.	8E\L	E-	.	.
4r	4r	8F#\J	.	.	.
.	.	8G#X\	-du-	.	.
=22	=22	=22	=22	=22	=22
*	*^	*	*	*	*
4r	4r	4ryy	8A\	-xi-	8r	.
.	.	.	8AA/	-sti	8a\L	E-
!	!LO:N:vis=4	!	!	!	!	!
4F#\	8aL 8c#/	8c#\L	4r	.	8cc#\J	.
!	!LO:N:vis=4	!	!	!	!	!
.	8d#X/J	8d#\J	.	.	8dd#X\	-du-
4E\	4g#X 4e/	2ryy	8r	.	8ee\	-xi-
.	.	.	8E\L	E-	8e/	-sti
4r	4re	.	8B\J	.	8ryy	.
.	.	.	8c#\	-du-	8r	.
*	*v	*v	*	*	*	*
!!LO:LB:g=original
=23	=23	=23	=23	=23	=23
4r	4r	2d\	-xi-	8r	.
.	.	.	.	8d/L	E-
4B\	8ddL 8f#\	.	.	8f#/J	.
.	8g#X\J	.	.	8g#X/	-du-
4A\	8cc#L 8a\	8c#\	-sti	8a/	-xi-
.	8cc# 8a\	8A\L	ab	8b\	-sti
4AA/	8cc# 8a\	8B\J	.	8cc#\	ab
.	8eeJ 8cc#\	8c#\	in-	8ee\	in-
=24	=24	=24	=24	=24	=24
8D\L	4ff# 4dd\	2d\	-fer-	2ff#\	-fer-
16D\L	.	.	.	.	.
16C#\JJ	.	.	.	.	.
8D\L	4ff# 4dd\	.	.	.	.
8C#\J	.	.	.	.	.
8D\L	4ff# 4dd\	2d\	-no	2ff#\	-no
8E\	.	.	.	.	.
8F#\	4ff# 4dd\	.	.	.	.
8G#X\J	.	.	.	.	.
=25	=25	=25	=25	=25	=25
4A\	8r	4d\	a-	4ff#\	A-
.	8ff#L 8dd\	.	.	.	.
4r	8ee 8cc#\	2c#\	.	2ee\	.
.	8eeJ 8cc#\	.	.	.	.
4D\	8r	.	.	.	.
.	8eeL 8cc#\	.	.	.	.
4r	8dd 8b\	4B\	-ni-	4dd\	.
.	8ddJ 8b\	.	.	.	.
!!LO:LB:g=original
=26	=26	=26	=26	=26	=26
!	!	!LO:SIC:v:l:s=-mam	!	!	!
4E\	8r	4B\	-ma-	4dd\	.
.	8ddL 8b\	.	.	.	.
4r	8cc# 8a\	8A\	.	8cc#\	-ni-
.	8cc#J 8a\	8A\	-me-	8cc#\	-mam
4EE/	8r	4A\	-am	4cc#\	me-
.	8cc#L 8a\	.	.	.	.
4r	8b 8g#X\	4G#X\	e	4b\	.
.	8bJ 8g#\	.	.	.	.
=27	=27	=27	=27	=27	=27
!LO:TX:t=P:problem=mixed beam	!	!	!	!	!
8AA/L	8a/L	4A\	a	4a/	-am
8A\	8a 8e 8c#/	.	.	.	.
8A\	8a 8e 8c#/	4r	.	4r	.
8A\J	8aJ 8e 8c#/	.	.	.	.
4A\	4a 4e 4c#/	2r	.	8r	.
.	.	.	.	8e/L	E-
4r	4r	.	.	8f#/J	.
.	.	.	.	8g#X/	-du-
=28	=28	=28	=28	=28	=28
*	*^	*	*	*	*
4r	4r	4ryy	8r	.	4a/	-xi-
.	.	.	8B\L	E-	.	.
!	!	!	!	!	!LO:N:vis=4	!
4F#\	4a/	8c#\L	8c#\J	.	8a/	-sti
!	!	!	!	!	!LO:N:vis=4	!
.	.	8d#X\J	8d#X\	-du-	8r	.
4E\	4g#X 4e/	2ryy	8e\	-xi-	8r	.
.	.	.	8E\	-sti	8e/L	e-
4r	4r	.	4r	.	8b/J	.
.	.	.	.	.	8cc#\	-du-
*	*v	*v	*	*	*	*
!!LO:PB:g=original
=29	=29	=29	=29	=29	=29
4r	4r	8r	.	2dd\	-xi-
.	.	8E\	e-	.	.
4B\	8ddL 8f#\	8F#\	.	.	.
.	8g#X\J	8G#X\	-du-	.	.
4A\	8cc#L 8a\	8A\	-xi-	8cc#\	-sti
.	8cc# 8a\	8A\	-sti	8cc#\L	ab
4r	8dd 8b\	8B\	ab	8dd\J	.
.	8eeJ 8cc#\	8c#\	in-	8ee\	in-
=30	=30	=30	=30	=30	=30
8D\L	4ff# 4dd\	2d\	-fer-	2ff#\	-fer-
16D\L	.	.	.	.	.
16C#\JJ	.	.	.	.	.
8D\L	4ff# 4dd\	.	.	.	.
8C#\J	.	.	.	.	.
8D\L	4ff# 4dd\	2d\	-no	2ff#\	-no
8E\	.	.	.	.	.
8F#\	4ff# 4dd\	.	.	.	.
8G#X\J	.	.	.	.	.
=31	=31	=31	=31	=31	=31
4A\	8r	4d\	A-	4ff#\	A-
.	8ff#L 8dd\	.	.	.	.
4r	8ee 8cc#\	2c#\	.	2ee\	.
.	8eeJ 8cc#\	.	.	.	.
4D\	8r	.	.	.	.
.	8eeL 8cc#\	.	.	.	.
4r	8dd 8b\	4B\	.	4dd\	.
.	8ddJ 8b\	.	.	.	.
!!LO:LB:g=original
=32	=32	=32	=32	=32	=32
4E\	8r	4B\	-ni-	4dd\	-ni-
.	8ddL 8b\	.	.	.	.
!	!	!LO:SIC:v:l:s=-mam	!	!LO:SIC:v:l:s=-mam	!
4r	8cc# 8a\	8A\	-ma	8cc#\	-ma
.	8cc#J 8a\	8A\	.	8cc#\	.
4EE/	8r	4A\	me-	4cc#\	me-
.	8cc#L 8a\	.	.	.	.
4r	8b 8g#X\	4G#X\	.	4b\	.
.	8bJ 8g#\	.	.	.	.
=33	=33	=33	=33	=33	=33
!LO:TX:t=P:problem=mixed beam	!	!LO:SIC:v:l:s=-am	!	!LO:SIC:v:l:s=-am	!
8AA/L	8a/L	4A\	-a	4a/	-a
16A\L	16a/L	.	.	.	.
16G#X\JJ	16g#X/JJ	.	.	.	.
16A\LL	16a/LL	4r	.	4r	.
16G#\	16g#/	.	.	.	.
16A\	16a/	.	.	.	.
16G#\JJ	16g#/JJ	.	.	.	.
4A\	4a/	2r	.	2r	.
4AA/	8r	.	.	.	.
!	!LO:TUP:a:problem=klamra łukowa	!	!	!	!
.	(40a\LLL	.	.	.	.
.	40b\	.	.	.	.
.	40cc#\	.	.	.	.
.	40dd\	.	.	.	.
.	40ee\JJJ)	.	.	.	.
=34	=34	=34	=34	=34	=34
4..D\	4..ffn 4..a\	1r	.	1r	.
16D\	16ff 16a\	.	.	.	.
4..Fn\	4..dd 4..a\	.	.	.	.
16F\	16dd 16a\	.	.	.	.
!!LO:LB:g=original
=35	=35	=35	=35	=35	=35
4AA/	4cc#\	1r	.	1r	.
4A\	4aa 4cc#\	.	.	.	.
4AA/	4a/	.	.	.	.
4A\	8r	.	.	.	.
*	*Xtuplet	*	*	*	*
.	40a\LLL	.	.	.	.
.	40b\	.	.	.	.
.	40cc#\	.	.	.	.
.	40dd\	.	.	.	.
.	40ee\JJJ	.	.	.	.
=36	=36	=36	=36	=36	=36
4..D\	4..ffn 4..a\	1r	.	1r	.
16D\	16ff 16a\	.	.	.	.
4..Fn\	4..dd 4..a\	.	.	.	.
16F\	16dd 16a\	.	.	.	.
=37	=37	=37	=37	=37	=37
4A\	4cc#\	1r	.	1r	.
8.AA/L	8.aaL 8.ee 8.cc#\	.	.	.	.
16AA/Jk	16aaJk 16ee 16cc#\	.	.	.	.
4AA/	4A/	.	.	.	.
4r	4r	.	.	.	.
=38	=38	=38	=38	=38	=38
4A\	8ccn 8f# 8d#X/	2r	.	1r	.
.	4cc 4f# 4d#/	.	.	.	.
4A\	.	.	.	.	.
.	4cc 4f# 4d#/	.	.	.	.
4A\	.	4cn\	Quo-	.	.
.	4cc 4f# 4d#/	.	.	.	.
4A\	.	8D#X\	-ni-	.	.
.	8cc 8f# 8d#/	8D#\	-am	.	.
!!LO:PB:g=original
=39	=39	=39	=39	=39	=39
4G\	8b 8e/	4F#\	i-	1ryy	.
.	4b 4e/	.	.	.	.
4G\	.	4E\	-ra	.	.
.	4b 4e/	.	.	.	.
4G\	.	8r	.	.	.
.	4b 4e/	8B\	in	.	.
4G\	.	8B\	in-	.	.
.	8b 8e/	8B\	-di-	.	.
=40	=40	=40	=40	=40	=40
4G\	8b-X 8e 8c#/	4.B-X\	-gna-	1r	.
.	4b- 4e 4c#/	.	.	.	.
4G\	.	.	.	.	.
.	4b- 4e 4c#/	8B-\	-ti-	.	.
4G\	.	4B-\	-o-	.	.
.	4b- 4e 4c#/	.	.	.	.
4G\	.	4C#/	-ne	.	.
.	8b- 8e 8c#/	.	.	.	.
=41	=41	=41	=41	=41	=41
*4\right	*	*	*	*	*
4Fn\	8a 8d/	4E\	me-	2r	.
.	4a 4d/	.	.	.	.
4F\	.	4D\	-a	.	.
.	4a 4d/	.	.	.	.
4F\	.	8r	.	8r	.
!	!	!LO:SIC:v:l:s=et	!	!LO:SIC:v:l:s=et	!
.	4a 4d/	8A\	e	8a/	e
4F\	.	8A\	vi-	8a/	vi-
.	8a 8d/	8A\	-ta	8a/	-ta
*4\left	*	*	*	*	*
!!LO:LB:g=original
=42	=42	=42	=42	=42	=42
4Fn 4BB-X/	4dd 4fn/	4Fn\	in	4dd\	in
!	!	!	!	!LO:SIC:v:l:s=wo-	!
4r	4r	8F\	vo-	8dd\	wo-
.	.	8F\	-lun-	8dd\	-lun-
2r	2r	4F\	-ta-	4dd\	-ta-
.	.	4F\	-te	4dd\	-te
=43	=43	=43	=43	=43	=43
1BB-X	2ffn 2g#X\	2D\	e-	2ffn\	e-
.	4ee 4g#\	4E\	.	4ee\	.
.	4dd 4g#\	4Fn\	.	4dd\	.
=44	=44	=44	=44	=44	=44
4AA/	4cc# 4a\	4A\	-jus	4cc#\	-jus
8r	8r	4r	.	4r	.
8A\	8e 8c#/	.	.	.	.
8A\L	8f#L 8d/	2r	.	2r	.
8A\	8f# 8d/	.	.	.	.
8A\	8e 8c#/	.	.	.	.
8A\J	8eJ 8c#/	.	.	.	.
=45	=45	=45	=45	=45	=45
*	*tremolo	*	*	*	*
!	!	!LO:TX:a:t=1	!	!LO:TX:a:t=1	!
8D\	8f# 8dL	1r	.	1r	.
8r	8f# 8d	.	.	.	.
8F#\	8f# 8d	.	.	.	.
8r	8f# 8d	.	.	.	.
8A\	8f# 8d	.	.	.	.
8r	8f# 8d	.	.	.	.
4r	8f# 8d	.	.	.	.
.	8f# 8dJ	.	.	.	.
!!LO:LB:g=original
=46	=46	=46	=46	=46	=46
8D\	8f# 8dL	1r	.	4.a/	E-
8r	8f# 8d	.	.	.	.
8F#\	8f# 8d	.	.	.	.
8r	8f# 8d	.	.	8a/	-go
8A\	8f# 8d	.	.	8ff#\L	au-
8r	8f# 8d	.	.	8cc#\J	.
4r	8f# 8d	.	.	8dd\L	-tem
.	8f# 8dJ	.	.	8b\J	.
=47	=47	=47	=47	=47	=47
8C#\	8g 8eL	2r	.	4.a/	di-
8r	8g 8e	.	.	.	.
8E\	8g 8e	.	.	.	.
8r	8g 8e	.	.	8g/	.
8A\	8g 8e	8r	.	4e/	-xi
8r	8g 8e	8A\	in	.	.
4r	8g 8e	8A\	a-	4r	.
.	8g 8eJ	8A\	-bun-	.	.
=48	=48	=48	=48	=48	=48
8C#\	8g 8eL	2e\	-dan-	1r	.
8r	8g 8e	.	.	.	.
8E\	8g 8e	.	.	.	.
8r	8g 8e	.	.	.	.
8A\	8g 8e	8e\L	.	.	.
8r	8g 8e	8c#\J	.	.	.
4r	8g 8e	8A\	-ti-	.	.
.	8g 8eJ	8G\	-a	.	.
=49	=49	=49	=49	=49	=49
8D\	8f# 8dL	4F#\	me-	4.a/	E-
8r	8f# 8d	.	.	.	.
8F#\	8f# 8d	4D\	-a	.	.
8r	8f# 8d	.	.	8a/	-go
8A\	8f# 8d	2r	.	8ff#\L	au-
8r	8f# 8d	.	.	8cc#\J	.
4r	8f# 8d	.	.	8dd\L	-tem
.	8f# 8dJ	.	.	8b\J	.
!!LO:PB:g=original
=50	=50	=50	=50	=50	=50
8D\	8f# 8dL	2r	.	4.a/	di-
8r	8f# 8d	.	.	.	.
8F#\	8f# 8d	.	.	.	.
8r	8f# 8d	.	.	8g/	.
8A\	8f# 8d	8r	.	4e/	-xi
8r	8f# 8d	8A\	in	.	.
4r	8f# 8d	8A\	a-	4r	.
.	8f# 8dJ	8A\	-bun-	.	.
=51	=51	=51	=51	=51	=51
8C#\	8g 8eL	2e\	-dan-	1r	.
8r	8g 8e	.	.	.	.
8E\	8g 8e	.	.	.	.
8r	8g 8e	.	.	.	.
8A\	8g 8e	8e\L	.	.	.
8ryy	8g 8e	8c#\J	.	.	.
4r	8g 8e	8A\	-ti-	.	.
.	8g 8eJ	8G\	-a	.	.
=52	=52	=52	=52	=52	=52
4D\	8f# 8d 8AL	4F#\	me-	2r	.
.	8f# 8d 8A	.	.	.	.
4DD/	8f# 8d 8A	4D\	-a	.	.
.	8f# 8d 8A	.	.	.	.
4D\	8f# 8d 8A	2r	.	8r	.
.	8f# 8d 8A	.	.	8a\	non
4r	8f# 8d 8A	.	.	8b\	non
.	8f# 8d 8AJ	.	.	8cc#\	mo-
*	*Xtremolo	*	*	*	*
=53	=53	=53	=53	=53	=53
4r	4r	8r	.	2dd\	-ve-
.	.	8D\	non	.	.
4B\	8ddL 8f#\	8F#\	non	.	.
.	8g#X\J	8G#X\	mo-	.	.
4A\	4cc# 4a\	8A\	-ve-	8cc#\	-bor
.	.	8AA/	-bor	8cc#\	non
4r	4ryy	4r	.	8ee\	non
.	.	.	.	8ff#\	mo-
!!LO:LB:g=original
=54	=54	=54	=54	=54	=54
4r	4r	8r	.	2gg\	-ve-
.	.	8G\	non	.	.
4E\	8ggL 8b\	8B\	non	.	.
.	8cc#\J	8c#\	mo-	.	.
4D\	8ff#L 8dd\	8d\	-ve-	8ff#\	-bor
.	8dd 8f#\	8F#\	-bor	8dd\	non
4r	8ee 8g\	8G\	non	8ee\	non
.	8ff#J 8a\	8A\	mo-	8ff#\	mo-
=55	=55	=55	=55	=55	=55
8G\L	4gg 4b\	4.B\	-ve-	4.gg\	-ve-
16G\L	.	.	.	.	.
16F#\JJ	.	.	.	.	.
8G\L	4gg 4b\	.	.	.	.
8F#\J	.	8B\	-bor	8gg\	-bor
8G\L	4gg 4b\	4B\	in	4gg\	in
8A\	.	.	.	.	.
8B\	4gg 4b\	4B\	ae-	4gg\	ae-
8c#\J	.	.	.	.	.
=56	=56	=56	=56	=56	=56
4d\	8r	4B\	-ter-	4gg\	-ter-
.	8ggL 8b\	.	.	.	.
4r	8ff# 8a\	2A\	.	2ff#\	.
.	8ff#J 8a\	.	.	.	.
4G\	8r	.	.	.	.
.	8ff#L 8a\	.	.	.	.
4r	8ee 8g\	4G\	.	4ee\	.
.	8eeJ 8g\	.	.	.	.
!!LO:LB:g=original
=57	=57	=57	=57	=57	=57
4A\	8r	4G\	.	4ee\	.
.	8eeL 8g\	.	.	.	.
4r	8dd 8f#\	2F#\	.	2dd\	.
.	8ddJ 8f#\	.	.	.	.
4AA/	8r	.	.	.	.
.	8ddL 8f#\	.	.	.	.
4r	8cc# 8e\	4E\	.	4cc#\	.
.	8cc#J 8e\	.	.	.	.
=58	=58	=58	=58	=58	=58
8D\L	4dd 4f#/	4F#\	-num	4dd\	-num
8D\	.	.	.	.	.
8D\	8f#L 8d 8A/	4r	.	4r	.
8D\J	8f# 8d 8A/	.	.	.	.
4D\	8f#J 8d 8A/	8r	.	2r	.
.	8f# 8d 8A/	8A\	non	.	.
4r	4r	8B\	non	.	.
.	.	8c#\	mo-	.	.
=59	=59	=59	=59	=59	=59
4r	8r	2d\	-ve-	8r	.
.	8ddL 8f#\	.	.	8d/	non
4B\	8g#X\J	.	.	8f#/	non
.	4cc# 4a\	.	.	8g#X/	mo-
4A\	.	8c#\	-bor	8a/	-ve-
.	8r	8A\	non	8a/	-bor
4r	4r	8A\	non	4r	.
.	.	8A\	mo-	.	.
!!LO:PB:g=original
=60	=60	=60	=60	=60	=60
4r	4r	2G\	-ve-	8r	.
.	.	.	.	8g/	non
4E\	8ggL 8b\	.	.	8b/	non
.	8cc#\J	.	.	8cc#/	mo-
4D\	8ff#L 8dd\	8F#\	-bor	8dd/	-ve-
.	8ff# 8dd\	8F#\	non	8dd/	-bor
4r	8gg 8ee\	8G\	non	8ee\	non
.	8aaJ 8ff#\	8A\	mo-	8ff#\	mo-
=61	=61	=61	=61	=61	=61
8G\L	4bb 4gg\	4.B\	-ve-	4.gg\	-ve-
16G\L	.	.	.	.	.
16F#\JJ	.	.	.	.	.
8G\L	4bb 4gg\	.	.	.	.
8F#\J	.	8B\	-bor	8gg\	-bor
8G\L	4bb 4gg\	4B\	in	4gg\	in
8A\	.	.	.	.	.
8B\	4bb 4gg\	4B\	ae-	4gg\	ae-
8c#\J	.	.	.	.	.
=62	=62	=62	=62	=62	=62
4d\	8r	4B\	-ter-	4gg\	-ter-
.	8bbL 8gg\	.	.	.	.
4r	8aa 8ff#\	2A\	.	2ff#\	.
.	8aaJ 8ff#\	.	.	.	.
4G\	8r	.	.	.	.
.	8aaL 8ff#\	.	.	.	.
4r	8gg 8ee\	4G\	.	4ee\	.
.	8ggJ 8ee\	.	.	.	.
!!LO:LB:g=original
=63	=63	=63	=63	=63	=63
4A\	8r	4G\	.	4ee\	.
.	8ggL 8ee\	.	.	.	.
4r	8ff# 8dd\	2F#\	.	2dd\	.
.	8ff#J 8dd\	.	.	.	.
4AA/	8r	.	.	.	.
.	8ff#L 8dd\	.	.	.	.
4r	8ee 8cc#\	4E\	.	4cc#\	.
.	8eeJ 8cc#\	.	.	.	.
=64	=64	=64	=64	=64	=64
!	!LO:TX:t=P:problem=mixed beam	!	!	!	!
4D\	8dd\L	4F#\	-num	4dd\	-num
.	8f# 8d 8A/	.	.	.	.
4D\	8f# 8d 8A/	4r	.	4r	.
.	8f#J 8d 8A/	.	.	.	.
*	*tremolo	*	*	*	*
4D\	8f# 8d 8A/L	4D\	in	4f#/	in
.	8f# 8d 8A/	.	.	.	.
4D\	8f# 8d 8A/	4D\	ae-	4f#/	ae-
.	8f# 8d 8A/J	.	.	.	.
=65	=65	=65	=65	=65	=65
*	*	*	*	*^	*
2C#/	8g 8e 8c# 8AL	1AA	-ter-	8a/L	1a	-ter-
.	8g 8e 8c# 8A	.	.	16b/L	.	.
.	.	.	.	16cc#/JJ	.	.
.	8g 8e 8c# 8A	.	.	16dd/LL	.	.
.	.	.	.	16ee/	.	.
.	8g 8e 8c# 8A	.	.	16ff#/	.	.
.	.	.	.	16gg/JJ	.	.
2AA/	8g 8e 8c# 8A	.	.	4aa/	.	.
.	8g 8e 8c# 8A	.	.	.	.	.
.	8g 8e 8c# 8A	.	.	4cc#/	.	.
.	8g 8e 8c# 8AJ	.	.	.	.	.
=66	=66	=66	=66	=66	=66	=66
*	*	*^	*	*	*	*
2D/	8f# 8d 8AL	4F#/	4D\	-num	4dd/	4f#\	-num
.	8f# 8d 8A	.	.	.	.	.	.
.	8f# 8d 8A	4r	4ryy	.	4r	4ryy	.
.	8f# 8d 8A	.	.	.	.	.	.
2AA/	8f# 8d 8A	4D\	2ryy	in	4a/	4f#\	in
.	8f# 8d 8A	.	.	.	.	.	.
.	8f# 8d 8A	4D\	.	ae-	4a/	4f#\	ae-
.	8f# 8d 8AJ	.	.	.	.	.	.
*	*	*v	*v	*	*	*	*
!!LO:LB:g=original
=67	=67	=67	=67	=67	=67	=67
2C#/	8g 8e 8c# 8AL	1AA	-ter-	8aa/L	1a	-ter-
.	8g 8e 8c# 8A	.	.	16gg/L	.	.
.	.	.	.	16ff#/JJ	.	.
.	8g 8e 8c# 8A	.	.	16ee/LL	.	.
.	.	.	.	16dd/	.	.
.	8g 8e 8c# 8A	.	.	16cc#/	.	.
.	.	.	.	16b/JJ	.	.
2AA/	8g 8e 8c# 8A	.	.	16a/LL	.	.
.	.	.	.	16g#X/	.	.
.	8g 8e 8c# 8A	.	.	16b/	.	.
.	.	.	.	16a/JJ	.	.
.	8g 8e 8c# 8A	.	.	16gn/LL	.	.
.	.	.	.	16f#/	.	.
.	8g 8e 8c# 8AJ	.	.	16g/	.	.
.	.	.	.	16e/JJ	.	.
*	*Xtremolo	*	*	*	*	*
*	*	*	*	*v	*v	*
=68	=68	=68	=68	=68	=68
4D\	4f# 4d 4A/	4D\	-num	4d/	-num.
4r	4r	4r	.	4r	.
4D\	4f# 4d 4A/	2r	.	2r	.
4D\	4f# 4d 4A/	.	.	.	.
=69	=69	=69	=69	=69	=69
1D;<	1f# 1d 1A;	1r;	.	1r;	.
==	==	==	==	==	==
*-	*-	*-	*-	*-	*-
!!!system-decoration: (s1,s2){(s3,s4)}
!!!RDF**kern: < = below
!!!AIN: 3 empty 1 soprn
!!!ENC: Andrzej Borzym
!!!END: 2020-11-08
!!!ENC: Zofia Niedbalska
!!!END: 2020-12-10
